packages/core/src/svgs/tokens/branded/EVMOS.svg

<svg width="24" height="24" viewBox="0 0 24 24" fill="none" xmlns="http://www.w3.org/2000/svg">
<path d="M9.57755 6.67642C6.20829 7.89183 5.9006 10.9996 4.93648 12.4458C3.96212 13.9176 1.72107 15.0098 2.02876 15.7585C2.13133 16.015 2.47492 16.0919 2.95185 16.0919H4.91085C5.3929 16.0919 6.05958 16.1022 6.34676 16.1791C7.6801 16.5381 9.42367 17.651 11.6699 17.6407C12.3673 17.6407 13.116 17.5586 13.9109 17.2714C14.7011 16.9928 15.4204 16.5439 16.0177 15.9562C16.6151 15.3687 17.0759 14.6568 17.3674 13.8714C17.3787 13.8402 17.384 13.8071 17.3828 13.774C17.379 13.7077 17.3506 13.6451 17.3032 13.5987C17.2557 13.5523 17.1927 13.5251 17.1264 13.5227C17.0729 13.5188 17.0193 13.5301 16.9721 13.5556C16.9249 13.5811 16.8859 13.6194 16.8597 13.6663C16.334 14.6803 15.4434 15.4574 14.3674 15.8406C13.8304 16.02 13.2668 16.1067 12.7007 16.0971C12.0272 16.1149 11.3572 15.9938 10.7326 15.7415C10.108 15.4892 9.54201 15.1109 9.06986 14.6304C8.80479 14.3452 8.58669 14.0198 8.4237 13.6663C8.31476 13.452 8.22386 13.2289 8.15191 12.9996C9.16217 12.5585 10.2391 12.0047 11.5622 11.5277C12.8597 11.0662 14.5571 10.6816 15.6135 10.379C16.2289 10.1995 17.0853 9.90205 17.7366 9.9072C17.8854 9.9072 17.9161 10.0508 17.9572 10.1636C18.075 10.4714 18.1623 10.9688 18.2135 11.2868C18.2222 11.3189 18.2379 11.3489 18.2595 11.3742C18.2812 11.3997 18.3081 11.4199 18.3385 11.4337C18.3689 11.4475 18.4021 11.4543 18.4354 11.4537C18.4687 11.4531 18.5016 11.4451 18.5315 11.4303C19.0187 11.1842 19.4597 10.9072 19.8546 10.6816C21.1674 9.92264 21.9571 9.2662 21.9982 8.84568C22.0037 8.79517 21.9966 8.74408 21.9777 8.69695C21.8802 8.46619 21.4853 8.40977 20.8546 8.40977C20.3673 8.40977 19.7315 8.43029 18.9879 8.5585C15.316 9.18927 11.2852 10.2098 7.85959 11.6765C7.84934 9.85599 9.01857 8.31747 10.9365 7.62515C11.5151 7.436 12.1234 7.35432 12.7314 7.38412C13.3006 7.39438 13.9109 7.44566 14.4392 7.64054C14.5469 7.67644 14.6699 7.6508 14.7468 7.57387C14.7982 7.52259 14.8186 7.46105 14.8186 7.39951C14.8186 7.30721 14.7673 7.21489 14.6699 7.16362C13.1725 6.40463 11.2955 6.06104 9.57755 6.67642Z" fill="#DBD4C5"/>
</svg>

<svg xmlns="http://www.w3.org/2000/svg" width="24" height="24" fill="none" viewBox="0 0 24 24">
    <path fill="#DBD4C5" d="M9.578 6.676C6.208 7.892 5.9 11 4.936 12.446c-.974 1.472-3.215 2.564-2.907 3.313.102.256.446.333.923.333H4.91c.482 0 1.149.01 1.436.087 1.333.36 3.077 1.472 5.323 1.462a6.4 6.4 0 0 0 2.24-.37 5.71 5.71 0 0 0 3.457-3.4.3.3 0 0 0 .016-.097.267.267 0 0 0-.257-.251.28.28 0 0 0-.266.143 4.5 4.5 0 0 1-2.493 2.175c-.537.179-1.1.266-1.666.256a4.9 4.9 0 0 1-3.63-1.467 3.7 3.7 0 0 1-.646-.964A4.3 4.3 0 0 1 8.152 13c1.01-.441 2.087-.995 3.41-1.472 1.298-.462 2.995-.846 4.052-1.149.615-.18 1.471-.477 2.123-.472.148 0 .18.144.22.257.118.307.205.805.256 1.123a.226.226 0 0 0 .319.143c.487-.246.928-.523 1.323-.748 1.312-.76 2.102-1.416 2.143-1.836a.3.3 0 0 0-.02-.15c-.098-.23-.493-.286-1.123-.286-.488 0-1.123.02-1.867.149-3.672.63-7.703 1.65-11.128 3.118-.01-1.821 1.159-3.36 3.077-4.052a5 5 0 0 1 1.794-.24c.57.01 1.18.06 1.708.256.108.035.23.01.308-.067a.24.24 0 0 0 .072-.174.27.27 0 0 0-.15-.236c-1.497-.76-3.373-1.103-5.091-.488"/>
</svg>
